!!!OTL: Don't Call Me Up
**kern
*part1
*staff1
*
*
*clefG2
*k[f#c#g#]
*A:
*M4/4
*MM105
=1
!LO:TX:a:t=[quarter]=105
4r
8r
16bLL
16bJJ
16ddLL
16dd
16dd
16ddJJ
16ddLL
16cc#J
[8cc#J
=2
4cc#]
8r
16aLL
16aJJ
16cc#LL
16cc#
16cc#
16cc#JJ
16cc#LL
16bJ
[8bJ
=3
4b]
8r
16bLL
16bJJ
16ddLL
16dd
16dd
16ddJJ
16ddLL
16cc#J
8bJ
!!linebreak:original
=4
8.g#L
8.g#
16aL
16bJJ
4b
16r
16aLL
16a
16bJJ
=5
4b
8r
16bLL
16bJJ
16ddLL
16dd
16dd
16ddJJ
16ddLL
16cc#J
[8cc#J
=6
4cc#]
16r
16aLL
16a
16aJJ
8cc#L
16cc#L
16cc#JJ
16cc#LL
16bJ
[8bJ
!!linebreak:original
=7
4b]
16r
16bLL
16b
16bJJ
8ddL
16ddL
16ddJJ
16ddLL
16cc#J
8cc#J
=8
8.g#L
8.g#
16aL
16bJJ
8.bL
16f#Jk 16ff#
8f#L 8ff#
8g#J 8gg#
=9
4.a 4.aa
16aLL 16aa
16aJJ 16aa
8.aL 8.aa
8.e 8.ee
8aJ 8aa
=10
8.g#L 8.gg#
8.dJ 8.cc#
4.e 4.b
8f#L 8ff#
8g#J 8gg#
!!linebreak:original
=11
4.a 4.aa
16aLL 16aa
16aJJ 16aa
8aL 8aa
16ek 16ee
8e 8ee
8c# 8cc#
[16eJk [16ee
=12
8e] 8ee]
2f# 2ff#
16r
16f# 16ff#
8f#L 8ff#
[8g#J [8gg#
=13
8g#L] 8dd 8gg#]
8ccc#J
8ccc#L
16ccc#L
16ccc#JJ
8qccc#/
8dddL
16ccc#L
16aaJJ
8aaL
[8bbJ
!!linebreak:original
=14
8bbL]
8bbJ
8bbL
16bbL
16bbJJ
8qbb/
8ccc#L
16bbL
16bbJJ
16aaLL
16gg#J
8ff#J
=15
4..aa
16aa
8.aaL
8ee
8cc#
[16eeJk
=16
2ee]
4r
16r
16aLL
16a
16bJJ
=17
1r
=18
1r
=19
1r
=20
1r
=21
1r
!!pagebreak:original
=22
1r
=23
1r
=24
1r
=25
1r
=26
1r
=27
1r
=28
1r
=29
1r
=30
1r
=31
1r
=32
1r
==
*-
!!!system-decoration: {(s1,s2)}
